public/themes/EC/images/info.svg

<?xml version="1.0" encoding="UTF-8"?>
<svg width="34px" height="34px" viewBox="0 0 34 34" version="1.1" xmlns="http://www.w3.org/2000/svg" xmlns:xlink="http://www.w3.org/1999/xlink">
    <!-- Generator: Sketch 61 (89581) - https://sketch.com -->
    <title>info</title>
    <desc>Created with Sketch.</desc>
    <g id="Page-1" stroke="none" stroke-width="1" fill="none" fill-rule="evenodd">
        <g id="info" fill="#383838" fill-rule="nonzero">
            <path d="M13,23.294148 L14.3125,17.9824267 C14.53125,17.14861 14.5625,16.8089069 14.3125,16.8089069 C13.3363089,17.0466256 12.40695,17.4432151 11.5625,17.9824267 L11,17.0559637 C13.0742497,15.1791607 15.6406304,13.9164276 18.40625,13.4118759 C19.5625,13.4118759 19.75,14.7398062 19.1875,16.8089069 L17.625,22.367685 C17.40625,23.3867943 17.53125,23.6956153 17.78125,23.6956153 C18.7242631,23.4956399 19.6037854,23.0716556 20.34375,22.4603313 L21,23.294148 C18.3125,25.9808907 15.3125,27 14.1875,27 C13.0625,27 12.1875,26.2897117 13,23.294148 L13,23.294148 Z M21,8.16191883 C20.966006,9.70687194 19.6887277,10.941673 18.125,10.9413079 C16.75,10.9413079 15.9375,10.1074911 16,8.77956083 C15.9999536,8.03703903 16.3005556,7.32536989 16.8347799,6.80323645 C17.3690041,6.281103 18.0924289,5.99192156 18.84375,6.00017181 C20.28125,6.00017181 21,6.98839902 21,8.16191883 Z" id="Shape"></path>
            <path d="M17,2.42857143 C25.0475778,2.42857143 31.5714286,8.95242222 31.5714286,17 C31.5714286,25.0475778 25.0475778,31.5714286 17,31.5714286 C8.95242222,31.5714286 2.42857143,25.0475778 2.42857143,17 C2.42857143,8.95242222 8.95242222,2.42857143 17,2.42857143 M17,0 C7.61115925,0 0,7.61115925 0,17 C0,26.3888407 7.61115925,34 17,34 C26.3888407,34 34,26.3888407 34,17 C34,7.61115925 26.3888407,0 17,0 Z" id="Shape"></path>
        </g>
    </g>
</svg>

<svg width="34" height="34" viewBox="0 0 34 34" xmlns="http://www.w3.org/2000/svg"><title>info</title><g fill="#383838"><path d="M13 23.294l1.313-5.312c.218-.833.25-1.173 0-1.173a9.119 9.119 0 0 0-2.75 1.173L11 17.056a15.069 15.069 0 0 1 7.406-3.644c1.157 0 1.344 1.328.782 3.397l-1.563 5.559c-.219 1.019-.094 1.328.156 1.328a5.966 5.966 0 0 0 2.563-1.236l.656.834C18.312 25.981 15.312 27 14.187 27c-1.124 0-2-.71-1.187-3.706zm8-15.132c-.034 1.545-1.311 2.78-2.875 2.78-1.375 0-2.188-.835-2.125-2.162 0-.743.3-1.455.835-1.977A2.83 2.83 0 0 1 18.844 6C20.28 6 21 6.988 21 8.162z"/><path d="M17 2.429c8.048 0 14.571 6.523 14.571 14.571S25.048 31.571 17 31.571 2.429 25.048 2.429 17 8.952 2.429 17 2.429M17 0C7.611 0 0 7.611 0 17s7.611 17 17 17 17-7.611 17-17S26.389 0 17 0z"/></g></svg>
